src/scalable/places-circle/green-folder-git.svg

<?xml version="1.0" encoding="UTF-8" standalone="no"?>
<svg
   width="64"
   height="64"
   version="1.1"
   viewBox="0 0 16.933 16.933"
   id="svg19"
   sodipodi:docname="green-folder-git.svg"
   inkscape:version="1.1.1 (3bf5ae0d25, 2021-09-20)"
   xmlns:inkscape="http://www.inkscape.org/namespaces/inkscape"
   xmlns:sodipodi="http://sodipodi.sourceforge.net/DTD/sodipodi-0.dtd"
   xmlns="http://www.w3.org/2000/svg"
   xmlns:svg="http://www.w3.org/2000/svg">
  <sodipodi:namedview
     id="namedview21"
     pagecolor="#505050"
     bordercolor="#ffffff"
     borderopacity="1"
     inkscape:pageshadow="0"
     inkscape:pageopacity="0"
     inkscape:pagecheckerboard="1"
     showgrid="false"
     inkscape:zoom="11.1875"
     inkscape:cx="31.955307"
     inkscape:cy="32"
     inkscape:window-width="1920"
     inkscape:window-height="1000"
     inkscape:window-x="0"
     inkscape:window-y="44"
     inkscape:window-maximized="1"
     inkscape:current-layer="svg19" />
  <defs
     id="defs7">
    <linearGradient
       id="c"
       x1="42"
       x2="44"
       y1="51"
       y2="55"
       gradientUnits="userSpaceOnUse">
      <stop
         offset="0"
         id="stop2" />
      <stop
         stop-opacity="0"
         offset="1"
         id="stop4" />
    </linearGradient>
  </defs>
  <circle
     cx="8.4665"
     cy="8.4665"
     r="7.4082"
     fill="#549957"
     style="paint-order:stroke fill markers"
     id="circle9" />
  <path
     transform="scale(.26458)"
     d="m16.17 14a24 24 0 0 0-8.1699 18 24 24 0 0 0 24 24 24 24 0 0 0 24-24 24 24 0 0 0-8.1582-18h-31.672z"
     fill="#fff"
     style="paint-order:stroke fill markers"
     id="path11" />
  <path
     d="m7.9374 4.2333c-0.35022 0-0.6429 0.27778-0.79374 0.52916l-0.31728 0.52916h-5.0432c-0.47418 0.99143-0.72183 2.076-0.725 3.175-2e-7 4.0915 3.3168 7.4082 7.4082 7.4082 4.0915 0 7.4082-3.3168 7.4082-7.4082-0.002675-1.005-0.20979-1.9988-0.60875-2.9212-0.20522-0.45891-0.46987-0.93487-0.73069-1.3121z"
     fill="#66bb6a"
     stroke-width=".26458"
     style="paint-order:stroke fill markers"
     id="path13" />
  <path
     transform="scale(.26458)"
     d="m32 4a28 28 0 0 0-18.467 7h36.951a28 28 0 0 0-18.484-7z"
     opacity=".15"
     style="paint-order:stroke fill markers"
     id="path15" />
  <path
     transform="scale(.26458)"
     d="m57.312 43.891-27.693 15.99a28 28 0 0 0 2.3809 0.11914 28 28 0 0 0 25.312-16.109z"
     fill="url(#c)"
     opacity=".1"
     style="paint-order:stroke fill markers"
     id="path17" />
  <path
     d="M 11.197356,9.724214 8.719145,7.2811732 c -0.142656,-0.1407331 -0.374132,-0.1407331 -0.516978,0 L 7.687605,7.788544 8.340356,8.4320809 C 8.492085,8.3815749 8.666058,8.4154739 8.786945,8.534674 8.90856,8.6546167 8.942627,8.8276018 8.890097,8.9777005 l 0.629178,0.620201 c 0.152255,-0.051735 0.327796,-0.018292 0.449411,0.1017654 0.169871,0.1674186 0.169871,0.4388191 0,0.6063781 -0.169994,0.167563 -0.445235,0.167563 -0.615304,0 C 9.225621,10.179969 9.194011,9.9948775 9.258792,9.8396815 L 8.67197,9.2612074 v 1.5222396 c 0.04138,0.02021 0.08047,0.04714 0.114975,0.08107 0.169871,0.167449 0.169871,0.438819 0,0.606524 -0.169872,0.167394 -0.445311,0.167394 -0.615058,0 -0.169872,-0.167705 -0.169872,-0.439075 0,-0.606524 0.04199,-0.04134 0.09061,-0.07262 0.142482,-0.09356 V 9.2346406 C 8.262499,9.2137066 8.21399,9.1826866 8.171887,9.1410606 8.04323,9.0142662 8.01227,8.8280797 8.078267,8.6722924 L 7.434732,8.0377744 5.735415,9.7128968 c -0.142726,0.1408491 -0.142726,0.3690492 0,0.5097762 l 2.478336,2.443046 c 0.142679,0.140705 0.374081,0.140705 0.516977,0 l 2.466629,-2.431725 c 0.142772,-0.140752 0.142772,-0.3690671 0,-0.5097769"
     style="fill:#ffffff;fill-opacity:1;fill-rule:nonzero;stroke:none;stroke-width:0.00613326"
     id="path870" />
</svg>

<svg width="64" height="64" viewBox="0 0 16.933 16.933" xmlns="http://www.w3.org/2000/svg"><defs><linearGradient id="a" x1="42" x2="44" y1="51" y2="55" gradientUnits="userSpaceOnUse"><stop offset="0"/><stop stop-opacity="0" offset="1"/></linearGradient></defs><circle cx="8.466" cy="8.466" r="7.408" fill="#549957" style="paint-order:stroke fill markers"/><path transform="scale(.26458)" d="M16.17 14A24 24 0 0 0 8 32a24 24 0 0 0 24 24 24 24 0 0 0 24-24 24 24 0 0 0-8.158-18H16.17z" fill="#fff" style="paint-order:stroke fill markers"/><path d="M7.937 4.233c-.35 0-.643.278-.793.53l-.318.529H1.783a7.408 7.408 0 0 0-.725 3.175 7.408 7.408 0 1 0 14.817 0 7.408 7.408 0 0 0-.61-2.922 8.525 8.525 0 0 0-.73-1.312z" fill="#66bb6a" style="paint-order:stroke fill markers"/><path transform="scale(.26458)" d="M32 4a28 28 0 0 0-18.467 7h36.951A28 28 0 0 0 32 4z" opacity=".15" style="paint-order:stroke fill markers"/><path transform="scale(.26458)" d="m57.312 43.891-27.693 15.99a28 28 0 0 0 2.38.12 28 28 0 0 0 25.313-16.11z" fill="url(#a)" opacity=".1" style="paint-order:stroke fill markers"/><path d="M11.197 9.724 8.72 7.281a.37.37 0 0 0-.517 0l-.514.508.652.643a.438.438 0 0 1 .447.103c.122.12.156.293.103.443l.63.62a.439.439 0 0 1 .449.102c.17.167.17.438 0 .606a.44.44 0 0 1-.616 0 .424.424 0 0 1-.094-.466l-.587-.579v1.522a.425.425 0 0 1 .115.688.44.44 0 0 1-.615 0 .425.425 0 0 1 .142-.7V9.235a.424.424 0 0 1-.236-.562l-.643-.635-1.7 1.675a.357.357 0 0 0 0 .51l2.479 2.443a.37.37 0 0 0 .517 0l2.466-2.432a.357.357 0 0 0 0-.51" style="fill:#fff;fill-opacity:1;fill-rule:nonzero;stroke:none;stroke-width:.00613326"/></svg>
